app/img/salary.svg

<svg width="48" height="48" viewBox="0 0 48 48" fill="none" xmlns="http://www.w3.org/2000/svg">
<g clip-path="url(#clip0_2392:1285)">
<path d="M29.5584 11.3411C31.2113 9.83141 32.25 7.65979 32.25 5.25004V1.50004C32.25 1.01788 32.0183 0.565071 31.627 0.283164C31.2359 0.0012582 30.7331 -0.0754293 30.2756 0.0770082L27.5279 0.992946C25.2528 1.75129 22.747 1.75129 20.472 0.992946L17.7243 0.0770082C17.2671 -0.075523 16.764 0.0012582 16.3729 0.283164C15.9817 0.565071 15.75 1.01788 15.75 1.50004V5.25004C15.75 7.65979 16.7887 9.83141 18.4416 11.3411C10.8082 13.7153 5.25 20.8457 5.25 29.25V41.8125C5.25 45.2244 8.02566 48 11.4375 48H36.5625C39.9743 48 42.75 45.2244 42.75 41.8125V29.25C42.75 20.8457 37.1918 13.7153 29.5584 11.3411ZM18.75 5.25004V3.5812L19.5234 3.83901C22.4102 4.80126 25.5898 4.80135 28.4767 3.83901L29.2501 3.5812V5.25004C29.2501 8.14485 26.8949 10.5 24.0001 10.5C21.1053 10.5 18.75 8.14495 18.75 5.25004ZM39.75 41.8125C39.75 43.5702 38.3201 45 36.5625 45H11.4375C9.67987 45 8.25 43.5702 8.25 41.8125V29.25C8.25 20.5654 15.3154 13.5 24 13.5C32.6846 13.5 39.75 20.5654 39.75 29.25V41.8125Z" fill="#FF5A30"/>
<path d="M24 27.75C22.3458 27.75 21 26.4042 21 24.75C21 23.0958 22.3458 21.75 24 21.75C25.6542 21.75 27 23.0958 27 24.75C27 25.5784 27.6716 26.25 28.5 26.25C29.3284 26.25 30 25.5784 30 24.75C30 21.9593 28.0849 19.6076 25.5 18.9398V18C25.5 17.1716 24.8284 16.5 24 16.5C23.1716 16.5 22.5 17.1716 22.5 18V18.9398C19.9151 19.6076 18 21.9593 18 24.75C18 28.0584 20.6916 30.75 24 30.75C25.6542 30.75 27 32.0958 27 33.75C27 35.4042 25.6542 36.75 24 36.75C22.3458 36.75 21 35.4042 21 33.75C21 32.9216 20.3284 32.25 19.5 32.25C18.6716 32.25 18 32.9216 18 33.75C18 36.5407 19.9151 38.8924 22.5 39.5602V40.5C22.5 41.3284 23.1716 42 24 42C24.8284 42 25.5 41.3284 25.5 40.5V39.5602C28.0849 38.8924 30 36.5407 30 33.75C30 30.4417 27.3084 27.75 24 27.75Z" fill="#FF5A30"/>
</g>
<defs>
<clipPath id="clip0_2392:1285">
<rect width="48" height="48" fill="white"/>
</clipPath>
</defs>
</svg>

<svg width="48" height="48" fill="none" xmlns="http://www.w3.org/2000/svg"><g clip-path="url(#clip0_2392:1285)" fill="#FF5A30"><path d="M29.558 11.341A8.23 8.23 0 0032.25 5.25V1.5A1.5 1.5 0 0030.276.077l-2.748.916c-2.275.758-4.781.758-7.056 0L17.724.077A1.5 1.5 0 0015.75 1.5v3.75a8.23 8.23 0 002.692 6.091C10.808 13.715 5.25 20.846 5.25 29.25v12.563A6.194 6.194 0 0011.438 48h25.124a6.194 6.194 0 006.188-6.188V29.25c0-8.404-5.558-15.535-13.192-17.909zM18.75 5.25V3.581l.773.258c2.887.962 6.067.962 8.954 0l.773-.258V5.25A5.256 5.256 0 0124 10.5a5.256 5.256 0 01-5.25-5.25zm21 36.563A3.191 3.191 0 0136.562 45H11.439a3.191 3.191 0 01-3.188-3.188V29.25c0-8.685 7.065-15.75 15.75-15.75 8.685 0 15.75 7.065 15.75 15.75v12.563z"/><path d="M24 27.75c-1.654 0-3-1.346-3-3s1.346-3 3-3 3 1.346 3 3a1.5 1.5 0 003 0 6.01 6.01 0 00-4.5-5.81V18a1.5 1.5 0 00-3 0v.94a6.01 6.01 0 00-4.5 5.81c0 3.308 2.692 6 6 6 1.654 0 3 1.346 3 3s-1.346 3-3 3-3-1.346-3-3a1.5 1.5 0 00-3 0 6.01 6.01 0 004.5 5.81v.94a1.5 1.5 0 003 0v-.94a6.01 6.01 0 004.5-5.81c0-3.308-2.692-6-6-6z"/></g><defs><clipPath id="clip0_2392:1285"><path fill="#fff" d="M0 0h48v48H0z"/></clipPath></defs></svg>
